X:23
T:Dr. Gordon Stables' Reel
M:2/4
L:1/16
Z: Jason R. Fruit <jason@starlight-glimmer>
K:D
U: R=!trill!
A, | (DF)A.c {c}d2.A.d | !>(!BAGF E!>)!DCg | fedc BAGF | GEAG FDD :|
g | fgaf gabg | efge fgaf | !<(!defg abc'!<)!d' | geag fd[dF]g |
fgaf gabg | efge fgag | {DA}!>(!fedc BAG!>)!F | GEAG FDD ||
"^VAR."A, | (DF).A.c {c}d2.A.d | RBARGF REDCg | (3(!>(!fga (3gfe) (3(dcB (3AG!>)!F) (3(EF!<(!G (3AB!<)!c) dDD :|
f | (DA)(.f.A) (G,B)(.g.B) | (A,c)(.g.c) (DA)(.f."_[sic]"E) | defg abc'd' | geag fddf |
(3("^arpeggio"DAf) (3(.f.A.D) (3(G,Bg) (3(.g.B.G,) | (3(A,cg) (3(.g.c.A,) (3(DAf) (3(.f.A.D) | {DA}!f!!>(!fedc !>)!BAGF | GEAG FD[DA,] |]

